src/ImageAssets/icon_DID.svg

<?xml version="1.0" encoding="UTF-8"?>
<svg width="10px" height="18px" viewBox="0 0 10 18" version="1.1" xmlns="http://www.w3.org/2000/svg" xmlns:xlink="http://www.w3.org/1999/xlink">
    <title>Group 9</title>
    <defs>
        <polygon id="path-1" points="0 0 10 0 10 8.46153846 0 8.46153846"></polygon>
        <polygon id="path-3" points="0 0 10 0 10 8.46153846 0 8.46153846"></polygon>
    </defs>
    <g id="UI-(tabs)-Release-v2-/-Design-v5" stroke="none" stroke-width="1" fill="none" fill-rule="evenodd">
        <g id="Signer_6" transform="translate(-1180.000000, -278.000000)">
            <g id="Group-9" transform="translate(1180.000000, 278.000000)">
                <path d="M3.84615385,13.3501218 L3.84615385,4.3421859 C3.84615385,4.06826476 4.08219619,3.84615385 4.37329844,3.84615385 L5.62670156,3.84615385 C5.91780381,3.84615385 6.15384615,4.06826476 6.15384615,4.3421859 L6.15384615,13.3501218 C6.15384615,13.6240429 5.91780381,13.8461538 5.62670156,13.8461538 L4.37329844,13.8461538 C4.08219619,13.8461538 3.84615385,13.6240429 3.84615385,13.3501218" id="Fill-1" fill="#B20230"></path>
                <g id="Group-5">
                    <mask id="mask-2" fill="white">
                        <use xlink:href="#path-1"></use>
                    </mask>
                    <g id="Clip-4"></g>
                    <path d="M2.07147318,5.82820138 C2.07147318,6.09861213 2.29358444,6.31787661 2.56750601,6.31787661 L7.44675356,6.31787661 C7.72067513,6.31787661 7.94278639,6.09861213 7.94278639,5.82820138 L7.94278639,4.49870765 C7.94278639,3.76535371 7.6475772,3.20367197 7.05715882,2.81335337 C6.46627086,2.42334382 5.7806843,2.22818453 4.99992956,2.22818453 C4.21886177,2.22818453 3.53577964,2.43045176 2.95005705,2.83452267 C2.36417795,3.23890262 2.07147318,3.84539529 2.07147318,4.65369163 L2.07147318,5.82820138 Z M0.496032833,8.46153846 C0.222111262,8.46153846 0,8.24227398 0,7.97186324 L0,4.87944597 C0,4.18379502 0.102211878,3.55381525 0.307105212,2.98966118 C0.511842021,2.42550711 0.778563367,1.96024611 1.10711273,1.59356914 C1.43581861,1.22689217 1.82134366,0.921405293 2.26431397,0.676799461 C2.70697123,0.432502669 3.15463734,0.258667191 3.60699924,0.155138506 C4.05920463,0.0517643423 4.52346256,0 4.99992956,0 C5.64748016,0 6.26169058,0.0916306119 6.84287389,0.274891836 C7.42358762,0.45830758 7.95468242,0.735671742 8.43553217,1.10698432 C8.91638192,1.47845142 9.29736769,1.98373321 9.57848949,2.62298421 C9.85929823,3.26238973 10.0000157,3.99574366 10.0000157,4.82304602 L10.0000157,7.97186324 C10.0000157,8.24227398 9.77790439,8.46153846 9.50398282,8.46153846 L0.496032833,8.46153846 Z" id="Fill-3" fill="#B20230" mask="url(#mask-2)"></path>
                </g>
                <g id="Group-8" transform="translate(0.000000, 9.230769)">
                    <mask id="mask-4" fill="white">
                        <use xlink:href="#path-3"></use>
                    </mask>
                    <g id="Clip-7"></g>
                    <path d="M2.07147318,3.80770621 C2.07147318,4.61616003 2.36417795,5.22265491 2.95005705,5.62688182 C3.53577964,6.03095421 4.21886177,6.2333767 4.99992956,6.2333767 C5.7806843,6.2333767 6.46627086,6.03806217 7.05715882,5.6480512 C7.6475772,5.2578857 7.94278639,4.6962019 7.94278639,3.96284529 L7.94278639,2.63319218 C7.94278639,2.36278045 7.72067513,2.14351516 7.44675356,2.14351516 L2.56750601,2.14351516 C2.29358444,2.14351516 2.07147318,2.36278045 2.07147318,2.63319218 L2.07147318,3.80770621 Z M9.50398282,0 C9.77790439,0 10.0000157,0.219265284 10.0000157,0.489677015 L10.0000157,3.63850573 C10.0000157,4.46565659 9.85929823,5.1990132 9.57848949,5.83842105 C9.29736769,6.47767439 8.91638192,6.98295802 8.43553217,7.35442648 C7.95468242,7.72574042 7.42358762,8.00326011 6.84287389,8.18652201 C6.26169058,8.36993842 5.64748016,8.46156937 4.99992956,8.46156937 C4.52346256,8.46156937 4.05920463,8.40980483 3.60699924,8.30643029 C3.15463734,8.20290123 2.70697123,8.0289106 2.26431397,7.78461291 C1.82134366,7.54000619 1.43581861,7.23451819 1.10711273,6.8679944 C0.778563367,6.5013161 0.511842021,6.03589888 0.307105212,5.47174275 C0.102211878,4.90774114 0,4.27775906 0,3.58210557 L0,0.489677015 C0,0.219265284 0.222111262,0 0.496032833,0 L9.50398282,0 Z" id="Fill-6" fill="#B20230" mask="url(#mask-4)"></path>
                </g>
            </g>
        </g>
    </g>
</svg>

<svg width="10" height="18" xmlns="http://www.w3.org/2000/svg" xmlns:xlink="http://www.w3.org/1999/xlink"><defs><path id="a" d="M0 0h10v8.462H0z"/><path id="c" d="M0 0h10v8.462H0z"/></defs><g fill="none" fill-rule="evenodd"><path d="M3.846 13.35V4.342c0-.274.236-.496.527-.496h1.254c.29 0 .527.222.527.496v9.008c0 .274-.236.496-.527.496H4.373c-.29 0-.527-.222-.527-.496" fill="#B20230"/><g><mask id="b" fill="#fff"><use xlink:href="#a"/></mask><path d="M2.071 5.828c0 .27.223.49.497.49h4.879c.274 0 .496-.22.496-.49v-1.33c0-.733-.295-1.294-.886-1.685-.59-.39-1.276-.585-2.057-.585-.781 0-1.464.202-2.05.607-.586.404-.879 1.01-.879 1.819v1.174ZM.496 8.462A.493.493 0 0 1 0 7.972V4.879c0-.695.102-1.325.307-1.89.205-.563.472-1.029.8-1.395A4.39 4.39 0 0 1 2.264.677c.443-.244.89-.418 1.343-.522A6.23 6.23 0 0 1 5 0c.647 0 1.262.092 1.843.275.58.183 1.112.46 1.593.832.48.371.861.877 1.142 1.516.281.64.422 1.373.422 2.2v3.149c0 .27-.222.49-.496.49H.496Z" fill="#B20230" mask="url(#b)"/></g><g transform="translate(0 9.23)"><mask id="d" fill="#fff"><use xlink:href="#c"/></mask><path d="M2.071 3.808c0 .808.293 1.415.88 1.819.585.404 1.268.606 2.049.606.78 0 1.466-.195 2.057-.585.59-.39.886-.952.886-1.685v-1.33c0-.27-.222-.49-.496-.49h-4.88a.493.493 0 0 0-.496.49v1.175ZM9.504 0c.274 0 .496.22.496.49v3.149c0 .827-.14 1.56-.422 2.2-.28.639-.662 1.144-1.142 1.515a5.095 5.095 0 0 1-1.593.833A6.087 6.087 0 0 1 5 8.462a6.23 6.23 0 0 1-1.393-.156 5.157 5.157 0 0 1-1.343-.521 4.394 4.394 0 0 1-1.157-.917c-.328-.367-.595-.832-.8-1.396C.102 4.908 0 4.278 0 3.582V.49C0 .22.222 0 .496 0h9.008Z" fill="#B20230" mask="url(#d)"/></g></g></svg>
